X:1
T:Edenvale
T:Henry Alline, 1786                  886. 886. 
T:Transcribed from Harmonia Americana, 1791.
T:A minor                Samuel Holyoke, 1791 
%%score [ 1 2 3 4 ]
L:1/8
Q:1/4=100
M:4/4
K:C
V:1 treble nm="Tr." snm="Tr."
V:2 treble nm="C." snm="C."
V:3 treble-8 nm="T." snm="T."
V:4 bass nm="B." snm="B."
V:1
 A2 | E2 A2 ^G2 e2 | dc B2 c2 z e | e2 g2 ge fd | e2 ed e2 z c/B/ | A2 fd ge dc | B4 z2 c2 | %7
w: 1. Too|mean this lit- tle|globe * for me, Nor|will I e'er * con- *|ten- ted * be To *|feed on * things * so *|vain; Its|
 e2 dc B2 ce | df ed c2 z F | G2 A2 G2 FG | A2 ^G2 A2 z e | ec d2 cA dc | B4 z2 B2 | ce ec BA ^G2 | %14
w: grea- test * plea- sures *|are * but * dross; Its|gran- deur short, its *|plea- sures cursed, Its|joys * all mixed * with *|pain, Its|joys * all * mixed * with|
 A8 |] %15
w: pain.|
V:2
 A2 | A2 A2 B2 c2 | B2 B2 c2 z B | A2 G2 c2 B2 | A2 G2 E2 z A/G/ | A2 B2 c2 B2 | B4 z2 G2 | %7
w: 2. But|res- ting in my|Sa- vior's arms My|soul en- joys trans-|por- ting charms In *|ev- er- las- ting|love; There's|
w: 3. Soar|then my soul, stretch|eve- ry thought; To|reach with- in the|heav'n- ly court A- *|bove this mor- tal|orb; Then|
 E2 FG B2 cA | F2 G2 A2 z F | G2 A2 c2 B2 | A2 B2 A2 z ^G | Ac B2 A2 A2 | B4 z2 B2 | cA GA BA B2 | %14
w: life, there's * joy and *|so- lid peace, There's|friend- ship that can|ne- ver cease, A|rock * that can- not|move, A|rock * that * can- * not|
w: let me * with arch- *|an- gels rise, And|find my seat a-|bove the skies, Where|sins * no more dis-|turb, Where|sins * no * more * dis-|
 A8 |] %15
w: move.|
w: turb.|
V:3
 E2 | AB c2 B2 c2 | BA ^G2 A2 z B | c2 d2 e2 d2 | c2 B2 c2 z e | fd df ec BA | E4 z2 G2 | %7
w: 4. There|with * an ev- er-|las- * ting band Of|kin- dred saints at|God's right hand My|hap- * py * lot * shall *|be; To|
 c2 BA ^G2 E2 | F2 G2 A2 z A | B2 c2 c2 d2 | e2 d2 c2 z B | ce df ec BA | ^G4 z2 e2 | Ac ge dc B2 | %14
w: soar, to * shout, to|reign, to rest, For-|ev- er and for-|ev- er blest, With|thee, * O * God, * with *|thee, With|thee, * O * God, * with|
 A8 |] %15
w: thee.|
V:4
 A,,2 | C,2 A,,2 E,2 C,2 | D,2 E,2 A,,2 z E, | A,2 G,2 C2 B,2 | A,2 G,2 C,2 z A,, | %5
 D,2 B,,2 C,2 D,2 | E,4 z2 C,2 | C,2 D,2 E,2 A,,2 | D,2 E,2 F,2 z D, | G,2 F,2 E,2 D,2 | %10
"^______________________________________________\nEdited by B. C. Johnston, 2019\n   1. (I) replaced with (II) throughout.\n   2. \nCounter\n part written.\n" C,2 B,,2 A,,2 z ^G,, | %11
 A,,2 B,,2 C,2 D,2 | E,4 z2"^I.                II." ^G,2 | A,2 C,2 D,2 E,2 | A,,8 |] %15

